X: 1
T: Dinny O'Brien's
R: reel
M: 4/4
L: 1/8
K: Dmix
g|:fd (3ddd d^cAB|c2 dB cAGE|D2 (3FED ADFD|EGAB cdeg|
fdd^c d=cAB|c2 dB cAGE|D2 ~E3G AB|cAGE{G} EDDg:|
fdd^c defg|ad (3ddd d^cAB|c2 ~c3d e=f|gc (3ccc gceg|
fd (3ddd d^cAB|cBdB cAGE|D2 ~E3G AB|cAGE{G} EDDg:|


Tune 1667	Setting 23065

